;FLAVOR:Marlin
;TIME:1665
;Filament used: 0.970402m
;Layer height: 0.2
;MINX:12.659
;MINY:26.416
;MINZ:0.3
;MAXX:94.497
;MAXY:43.505
;MAXZ:14.975
;Generated with Cura_SteamEngine 5.2.1
M82 ;absolute extrusion mode
;Profil Homepage: https://github.com/NilsRo/Cura_Anycubic_MegaS_Profile

;Slicer Information - (Support for OctoPrint Slicer Estimator)
;Slicer info:material_guid;0ff92885-617b-4144-a03c-9989872454bc
;Slicer info:material_id;generic_pla_175
;Slicer info:material_brand;Generic
;Slicer info:material_name;PLA
;Slicer info:filament_cost;[0.0]
;Slicer info:material_bed_temperature;60
;Slicer info:material_bed_temperature_layer_0;60
;Slicer info:material_print_temperature;200
;Slicer info:material_print_temperature_layer_0;205
;Slicer info:material_flow;100
;Slicer info:layer_height;0.2
;Slicer info:machine_nozzle_size;0.4
;Slicer info:wall_thickness;1.2000000000000002
;Slicer info:speed_print;50.0
;Slicer info:speed_topbottom;25.0
;Slicer info:travel_speed;100.0
;Slicer info:support;0
;Slicer info:retraction_speed;30
;Slicer info:retraction_amount;6
;Slicer info:layer_height;0.2
;Slicer info:infill_pattern;grid
;Slicer info:infill_sparse_density;25
;Slicer info:cool_fan_enabled;True
;Slicer info:cool_fan_speed;100
;Slicer info:sliced_at;Tue 31-01-2023 00:21:04
G21                                        ; metric values 
G90                                        ; absolute positioning 
M82                                        ; set extruder to absolute mode 
M107                                       ; start with the fan off 
M140 S60   ; Start heating the bed 
G4 S60                                     ; wait 1 minute 
M104 S205 ; start heating the hot end 
M190 S60   ; wait for bed 
M109 S205 ; wait for hotend 
M300 S1000 P500                            ; BEEP heating done 
G28 X0 Y10 Z0                              ; move X/Y to min endstops 
M420 S1                                    ; Enable leveling 
M420 Z2.0                                  ; Set leveling fading height to 2 mm 
G0 Z0.15                                   ; lift nozzle a bit 
G92 E0                                     ; zero the extruded length 
G1 X50 E20 F500                            ; Extrude 20mm of filament in a 5cm line. 
G92 E0                                     ; zero the extruded length again 
G1 E-2 F500                                ; Retract a little 
G1 X50 F500                                ; wipe away from the filament line
G1 X100 F9000                              ; Quickly wipe away from the filament line
G92 E0
G92 E0
G1 F1800 E-6
;LAYER_COUNT:74
;LAYER:0
M106 S76.5
M205 X10 Y10
G1 F480 Z0.375
G0 F6000 X16.643 Y27.76 Z0.375
M205 X8 Y8
;TYPE:SKIRT
G1 F480 Z0.3
G1 F1800 E0
G1 F1200 X17.211 Y27.421 E0.033
G1 X17.806 Y27.115 E0.06638
G1 X18.692 Y26.784 E0.11357
G1 X19.85 Y26.534 E0.17267
G1 X20.356 Y26.471 E0.19811
G1 X20.882 Y26.43 E0.22443
G1 X21.386 Y26.418 E0.24958
G1 X85.6 Y26.416 E3.45323
G1 X86.435 Y26.429 E3.4949
G1 X87.102 Y26.479 E3.52827
G1 X87.781 Y26.615 E3.56282
G1 X88.369 Y26.771 E3.59317
G1 X89.004 Y26.981 E3.62653
G1 X89.639 Y27.27 E3.66134
G1 X90.519 Y27.758 E3.71154
G1 X91.082 Y28.119 E3.74491
G1 X91.759 Y28.674 E3.78858
G1 X92.383 Y29.319 E3.83336
G1 X92.734 Y29.774 E3.86203
G1 X93.095 Y30.304 E3.89402
G1 X93.401 Y30.788 E3.92259
G1 X93.724 Y31.374 E3.95597
G1 X94.057 Y32.188 E3.99985
G1 X94.301 Y33.062 E4.04512
G1 X94.394 Y33.643 E4.07448
G1 X94.45 Y34.208 E4.1028
G1 X94.492 Y34.831 E4.13395
G1 X94.497 Y35.5 E4.16733
G1 X94.431 Y36.114 E4.19814
G1 X94.35 Y36.608 E4.22311
G1 X94.203 Y37.261 E4.25651
G1 X93.939 Y37.982 E4.29481
G1 X93.552 Y38.85 E4.34223
G1 X93.243 Y39.444 E4.37563
G1 X92.813 Y40.074 E4.41369
G1 X92.276 Y40.68 E4.45408
G1 X91.844 Y41.135 E4.48538
G1 X91.355 Y41.592 E4.51878
G1 X90.51 Y42.184 E4.57025
G1 X89.554 Y42.69 E4.62421
G1 X88.945 Y42.966 E4.65757
G1 X88.445 Y43.132 E4.68386
G1 X87.544 Y43.358 E4.7302
G1 X86.885 Y43.471 E4.76356
G1 X86.269 Y43.505 E4.79434
G1 X21.66 Y43.505 E8.01769
G1 X20.957 Y43.495 E8.05277
G1 X20.013 Y43.402 E8.10009
G1 X19.455 Y43.293 E8.12846
G1 X18.811 Y43.145 E8.16142
G1 X18.169 Y42.956 E8.19481
G1 X17.441 Y42.643 E8.23435
G1 X16.641 Y42.163 E8.28089
G1 X16.216 Y41.893 E8.30601
G1 X15.674 Y41.501 E8.33939
G1 X15.171 Y41.035 E8.37359
G1 X14.825 Y40.673 E8.39858
G1 X14.392 Y40.163 E8.43195
G1 X14.02 Y39.598 E8.4657
G1 X13.765 Y39.155 E8.49121
G1 X13.469 Y38.612 E8.52206
G1 X13.186 Y38.006 E8.55543
G1 X12.973 Y37.357 E8.58951
G1 X12.846 Y36.87 E8.61461
G1 X12.716 Y36.214 E8.64798
G1 X12.666 Y35.537 E8.68185
G1 X12.659 Y34.869 E8.71517
G1 X12.668 Y34.357 E8.74072
G1 X12.72 Y33.69 E8.7741
G1 X12.897 Y32.797 E8.81952
G1 X13.181 Y31.93 E8.86504
G1 X13.459 Y31.331 E8.89798
G1 X13.711 Y30.863 E8.9245
G1 X14.026 Y30.315 E8.95603
G1 X14.396 Y29.757 E8.98944
G1 X14.812 Y29.266 E9.02154
G1 X15.161 Y28.899 E9.04681
G1 X15.65 Y28.443 E9.08017
G1 X16.219 Y28.029 E9.11527
G1 X16.643 Y27.76 E9.14033
M205 X10 Y10
G0 F6000 X16.857 Y28.098
M205 X8 Y8
G1 F1200 X17.415 Y27.765 E9.17274
G1 X17.989 Y27.472 E9.2049
G1 X18.813 Y27.166 E9.24875
G1 X19.9 Y26.931 E9.30423
G1 X20.667 Y26.836 E9.34279
G1 X21.386 Y26.818 E9.37867
G1 X85.6 Y26.816 E12.58232
G1 X86.429 Y26.829 E12.62369
G1 X87.071 Y26.879 E12.65581
G1 X87.678 Y27.002 E12.68671
G1 X88.266 Y27.158 E12.71706
G1 X89.027 Y27.412 E12.75709
G1 X89.825 Y27.828 E12.80199
G1 X90.324 Y28.107 E12.83051
G1 X90.866 Y28.456 E12.86267
G1 X91.496 Y28.974 E12.90336
G1 X92.095 Y29.597 E12.94648
G1 X92.511 Y30.14 E12.9806
G1 X93.063 Y31.002 E13.03167
G1 X93.373 Y31.567 E13.06382
G1 X93.683 Y32.329 E13.10487
G1 X93.914 Y33.169 E13.14833
G1 X93.996 Y33.685 E13.1744
G1 X94.051 Y34.235 E13.20197
G1 X94.093 Y34.858 E13.23312
G1 X94.097 Y35.503 E13.2653
G1 X94.036 Y36.049 E13.29271
G1 X93.955 Y36.543 E13.31769
G1 X93.812 Y37.172 E13.34987
G1 X93.573 Y37.82 E13.38433
G1 X93.186 Y38.688 E13.43174
G1 X92.888 Y39.259 E13.46388
G1 X92.352 Y39.992 E13.50918
G1 X91.986 Y40.404 E13.53667
G1 X91.554 Y40.859 E13.56797
G1 X91.082 Y41.299 E13.60017
G1 X90.312 Y41.836 E13.647
G1 X89.367 Y42.336 E13.70034
G1 X88.602 Y42.681 E13.74221
G1 X87.453 Y42.968 E13.80129
G1 X86.817 Y43.076 E13.83348
G1 X86.269 Y43.105 E13.86086
G1 X21.666 Y43.105 E17.08391
G1 X20.963 Y43.095 E17.11899
G1 X20.086 Y43.008 E17.16296
G1 X19.544 Y42.903 E17.1905
G1 X18.9 Y42.755 E17.22347
G1 X18.282 Y42.572 E17.25562
G1 X17.614 Y42.28 E17.292
G1 X16.856 Y41.825 E17.3361
G1 X16.431 Y41.555 E17.36122
G1 X15.909 Y41.176 E17.39341
G1 X15.46 Y40.759 E17.42398
G1 X15.114 Y40.397 E17.44896
G1 X14.698 Y39.904 E17.48114
G1 X14.366 Y39.398 E17.51134
G1 X13.874 Y38.538 E17.56077
G1 X13.549 Y37.837 E17.59931
G1 X13.36 Y37.256 E17.6298
G1 X13.233 Y36.769 E17.65491
G1 X13.11 Y36.136 E17.68708
G1 X13.066 Y35.531 E17.71734
G1 X13.059 Y34.876 E17.75002
G1 X13.068 Y34.364 E17.77557
G1 X13.119 Y33.721 E17.80775
G1 X13.287 Y32.888 E17.85014
G1 X13.562 Y32.055 E17.89391
G1 X13.812 Y31.521 E17.92332
G1 X14.293 Y30.635 E17.97362
G1 X14.73 Y29.979 E18.01295
G1 X15.102 Y29.542 E18.04158
G1 X15.451 Y29.175 E18.06684
G1 X15.923 Y28.736 E18.099
G1 X16.433 Y28.367 E18.13041
G1 X16.857 Y28.098 E18.15546
M205 X10 Y10
G1 F1800 E12.15546
G1 F480 Z0.375
;MESH:MindsEye Bracket.STL
G0 F6000 X23.514 Y36.107 Z0.375
M205 X8 Y8
;TYPE:WALL-INNER
G1 F480 Z0.3
G1 F1800 E18.15546
G1 F1200 X22.976 Y36.905 E18.20348
G1 X84.08 Y36.907 E21.25197
G1 X83.585 Y36.305 E21.29085
G1 X83.276 Y35.429 E21.33719
G1 X83.276 Y34.494 E21.38384
G1 X83.584 Y33.623 E21.42993
G1 X84.071 Y33.018 E21.46868
G1 X22.975 Y33.019 E24.51677
G1 X23.526 Y33.832 E24.56577
G1 X23.757 Y34.726 E24.61184
G1 X23.681 Y35.632 E24.65719
G1 X23.514 Y36.107 E24.68231
M205 X10 Y10
G1 F1800 E18.68231
G1 F480 Z0.375
G0 F6000 X83.676 Y34.567 Z0.375
M205 X8 Y8
G1 F480 Z0.3
G1 F1800 E24.68231
G1 F1200 X83.938 Y33.822 E24.72171
G1 X84.462 Y33.171 E24.76341
G1 X84.706 Y32.991 E24.77853
G1 F1191.1 X85.532 Y32.655 E24.82336
G1 F1176.5 X85.653 Y32.62 E24.82977
G1 X69.883 Y32.62 E25.63227
G1 F1182.3 X54.113 Y32.619 E26.43084
G1 F1191.1 X38.343 Y32.619 E27.22351
G1 F1197 X22.573 Y32.618 E28.01224
G1 F1165 X21.605 Y32.644 E28.062
G1 X22.458 Y33.104 E28.11181
G1 F1200 X22.685 Y33.304 E28.1269
G1 X23.158 Y34.004 E28.16905
G1 X23.353 Y34.761 E28.20805
G1 X23.283 Y35.598 E28.24995
G1 X23.182 Y35.883 E28.26504
G1 X22.77 Y36.494 E28.3018
G1 F1188.1 X22.406 Y36.845 E28.32728
G1 F1156.6 X21.542 Y37.292 E28.37763
G1 F1167.9 X22.421 Y37.306 E28.4227
G1 F1197 X43.316 Y37.306 E29.46776
G1 F1188.1 X64.211 Y37.305 E30.52064
G1 F1179.4 X85.106 Y37.304 E31.58134
G1 F1142.9 X85.343 Y37.285 E31.5938
G1 F1148.3 X84.432 Y36.716 E31.64979
G1 F1194 X83.938 Y36.102 E31.68931
G1 F1200 X83.676 Y35.357 E31.72871
G1 X83.676 Y34.567 E31.76812
M205 X10 Y10
G0 F6000 X84.076 Y34.634
M205 X8 Y8
;TYPE:WALL-OUTER
G1 F1200 X84.293 Y34.019 E31.80066
G1 X84.807 Y33.381 E31.84153
G1 X85.739 Y33.011 E31.89156
G1 X86.552 Y33.117 E31.93246
G1 X87.282 Y33.486 E31.97327
G1 X87.743 Y34.17 E32.01442
G1 X87.943 Y34.944 E32.05431
G1 X87.942 Y34.98 E32.0561
G1 X87.697 Y35.922 E32.10466
G1 X87.128 Y36.516 E32.1457
G1 X86.384 Y36.884 E32.18711
G1 X85.405 Y36.845 E32.23599
G1 X84.704 Y36.413 E32.27707
G1 X84.293 Y35.905 E32.30967
G1 X84.076 Y35.29 E32.34221
G1 X84.076 Y34.634 E32.37494
M205 X10 Y10
G0 F6000 X84.142 Y34.446
G1 F1800 E26.37494
G1 F480 Z0.375
G0 F6000 X20.013 Y33.231 Z0.375
M205 X8 Y8
G1 F480 Z0.3
G1 F1800 E32.37494
G1 F1004.2 X20.752 Y33.021 E32.42074
G1 F1200 X20.828 Y33.017 E32.42454
G1 X21.586 Y33.115 E32.46267
G1 X22.324 Y33.485 E32.50386
G1 X22.786 Y34.168 E32.54499
G1 X22.949 Y34.798 E32.57746
G1 X22.88 Y35.615 E32.61837
G1 X22.422 Y36.294 E32.65923
G1 F1203 X22.169 Y36.517 E32.67601
G1 X21.444 Y36.881 E32.71638
G1 X20.62 Y36.848 E32.75742
G1 F1004.2 X20.013 Y36.714 E32.79448
G1 F868 X19.478 Y36.241 E32.84374
G1 F877.5 X19.14 Y35.635 E32.89108
G1 F898.9 X19.037 Y35.006 E32.93353
G1 X19.14 Y34.289 E32.98177
G1 F877.5 X19.473 Y33.688 E33.02865
G1 F868 X20.013 Y33.231 E33.07744
M205 X10 Y10
G0 F6000 X20.205 Y33.177
G1 F1800 E27.07744
G1 F480 Z0.375
G0 F6000 X18.633 Y34.088 Z0.375
M205 X8 Y8
G1 F480 Z0.3
G1 F1800 E33.07744
G1 F875.9 X18.531 Y34.497 E33.10625
G1 F868 X18.531 Y35.427 E33.1704
G1 F875.9 X18.633 Y35.836 E33.19921
G1 F877.5 X19.075 Y36.626 E33.26097
G1 F854.1 X19.397 Y36.95 E33.29299
G1 F845.1 X19.856 Y37.237 E33.33134
G1 F977.6 X20.148 Y37.509 E33.35578
G1 F1173.6 X21.051 Y37.706 E33.40293
G1 F1200 X86.281 Y37.708 E36.65726
G1 X86.865 Y37.561 E36.68731
G1 X87.663 Y37.128 E36.73261
G1 X88.276 Y36.464 E36.77769
G1 X88.64 Y35.629 E36.82314
G1 X88.714 Y35.192 E36.84525
G1 X88.643 Y34.337 E36.88805
G1 X88.493 Y33.862 E36.9129
G1 X87.995 Y33.098 E36.9584
G1 X87.67 Y32.801 E36.98037
G1 X86.865 Y32.362 E37.02611
G1 X86.285 Y32.217 E37.05594
G1 X21.054 Y32.218 E40.31033
G1 X20.142 Y32.412 E40.35684
G1 F1098.4 X19.148 Y33.162 E40.42471
G1 F943 X18.633 Y34.088 E40.49198
M205 X10 Y10
G0 F6000 X18.585 Y34.282
G1 F1800 E34.49198
G1 F480 Z0.375
G0 F6000 X20.305 Y32.774 Z0.375
M205 X8 Y8
;TYPE:WALL-INNER
G1 F480 Z0.3
G1 F1800 E40.49198
G1 F1176.5 X20.811 Y32.614 E40.51899
G1 F1041.2 X21.613 Y32.667 E40.5652
M205 X10 Y10
G1 F1800 E34.5652
G1 F480 Z0.375
G0 F6000 X21.499 Y37.291 Z0.375
M205 X8 Y8
G1 F480 Z0.3
G1 F1800 E40.5652
G1 F1100.9 X21.095 Y37.288 E40.58717
G1 F1221.4 X20.541 Y37.214 E40.61457
G1 F1333.3 X20.366 Y37.164 E40.62274
M205 X10 Y10
G1 F1800 E34.62274
G1 F480 Z0.375
G0 F6000 X85.44 Y37.277 Z0.375
M205 X8 Y8
G1 F480 Z0.3
G1 F1800 E40.62274
G1 F1078.7 X86.23 Y37.293 E40.6666
G1 F1134.8 X86.717 Y37.178 E40.693
G1 F1156.6 X87.386 Y36.83 E40.73203
G1 F1162.2 X88.003 Y36.176 E40.77834
G1 F1137.4 X88.238 Y35.509 E40.81557
G1 F1233.9 X88.316 Y34.913 E40.84473
G1 F1326 X88.183 Y34.11 E40.88148
G1 F1218.3 X87.684 Y33.361 E40.92571
G1 F1197 X87.427 Y33.116 E40.94347
G1 F1185.2 X86.716 Y32.746 E40.98395
G1 F1100.9 X86.232 Y32.644 E41.01085
G1 F1111.1 X85.653 Y32.62 E41.04208
M205 X10 Y10
G1 F1800 E35.04208
G1 F480 Z0.375
G0 F6000 X24.142 Y34.689 Z0.375
M205 X8 Y8
;TYPE:SKIN
G1 F480 Z0.3
G1 F1800 E41.04208
G1 F1200 X24.06 Y35.683 E41.09184
G1 X23.854 Y36.275 E41.12311
G1 X23.692 Y36.525 E41.13797
G1 X83.327 Y36.526 E44.11317
G1 X83.185 Y36.302 E44.1264
G1 X82.896 Y35.492 E44.16931
G1 X82.896 Y34.434 E44.22209
G1 X83.186 Y33.617 E44.26535
G1 X83.326 Y33.398 E44.27831
G1 X23.678 Y33.4 E47.25416
G1 X23.925 Y33.866 E47.28048
G1 X24.142 Y34.689 E47.32294
M205 X10 Y10
G0 F6000 X24.15 Y36.029
M205 X8 Y8
G1 F1200 X24.445 Y36.324 E47.34375
M205 X10 Y10
G0 F6000 X25.011 Y36.324
M205 X8 Y8
G1 F1200 X24.268 Y35.582 E47.39614
M205 X10 Y10
G0 F6000 X24.311 Y35.059
M205 X8 Y8
G1 F1200 X25.576 Y36.324 E47.48539
M205 X10 Y10
G0 F6000 X26.142 Y36.324
M205 X8 Y8
G1 F1200 X24.293 Y34.475 E47.61585
G1 X24.223 Y34.405
M205 X10 Y10
G0 F6000 X24.034 Y33.651
M205 X8 Y8
G1 F1200 X26.708 Y36.324 E47.80448
M205 X10 Y10
G0 F6000 X27.273 Y36.324
M205 X8 Y8
G1 F1200 X24.548 Y33.599 E47.99674
M205 X10 Y10
G0 F6000 X25.114 Y33.599
M205 X8 Y8
G1 F1200 X27.839 Y36.324 E48.18901
M205 X10 Y10
G0 F6000 X28.405 Y36.324
M205 X8 Y8
G1 F1200 X25.679 Y33.599 E48.38131
M205 X10 Y10
G0 F6000 X26.245 Y33.599
M205 X8 Y8
G1 F1200 X28.97 Y36.324 E48.57357
M205 X10 Y10
G0 F6000 X29.536 Y36.324
M205 X8 Y8
G1 F1200 X26.811 Y33.599 E48.76583
M205 X10 Y10
G0 F6000 X27.377 Y33.599
M205 X8 Y8
G1 F1200 X30.102 Y36.324 E48.9581
M205 X10 Y10
G0 F6000 X30.667 Y36.324
M205 X8 Y8
G1 F1200 X27.942 Y33.599 E49.15036
M205 X10 Y10
G0 F6000 X28.508 Y33.599
M205 X8 Y8
G1 F1200 X31.233 Y36.324 E49.34262
M205 X10 Y10
G0 F6000 X31.799 Y36.324
M205 X8 Y8
G1 F1200 X29.074 Y33.599 E49.53489
M205 X10 Y10
G0 F6000 X29.639 Y33.599
M205 X8 Y8
G1 F1200 X32.364 Y36.324 E49.72715
M205 X10 Y10
G0 F6000 X32.93 Y36.324
M205 X8 Y8
G1 F1200 X30.205 Y33.599 E49.91941
M205 X10 Y10
G0 F6000 X30.771 Y33.599
M205 X8 Y8
G1 F1200 X33.496 Y36.324 E50.11168
M205 X10 Y10
G0 F6000 X34.062 Y36.324
M205 X8 Y8
G1 F1200 X31.336 Y33.599 E50.30398
M205 X10 Y10
G0 F6000 X31.902 Y33.599
M205 X8 Y8
G1 F1200 X34.627 Y36.324 E50.49624
M205 X10 Y10
G0 F6000 X35.193 Y36.324
M205 X8 Y8
G1 F1200 X32.468 Y33.599 E50.6885
M205 X10 Y10
G0 F6000 X33.033 Y33.599
M205 X8 Y8
G1 F1200 X35.759 Y36.324 E50.8808
M205 X10 Y10
G0 F6000 X36.324 Y36.324
M205 X8 Y8
G1 F1200 X33.599 Y33.599 E51.07307
M205 X10 Y10
G0 F6000 X34.165 Y33.599
M205 X8 Y8
G1 F1200 X36.89 Y36.324 E51.26533
M205 X10 Y10
G0 F6000 X37.456 Y36.324
M205 X8 Y8
G1 F1200 X34.73 Y33.599 E51.45763
M205 X10 Y10
G0 F6000 X35.296 Y33.599
M205 X8 Y8
G1 F1200 X38.021 Y36.324 E51.64989
M205 X10 Y10
G0 F6000 X38.587 Y36.324
M205 X8 Y8
G1 F1200 X35.862 Y33.599 E51.84215
M205 X10 Y10
G0 F6000 X36.428 Y33.599
M205 X8 Y8
G1 F1200 X39.153 Y36.324 E52.03442
M205 X10 Y10
G0 F6000 X39.718 Y36.324
M205 X8 Y8
G1 F1200 X36.993 Y33.599 E52.22668
M205 X10 Y10
G0 F6000 X37.559 Y33.599
M205 X8 Y8
G1 F1200 X40.284 Y36.324 E52.41895
M205 X10 Y10
G0 F6000 X40.85 Y36.324
M205 X8 Y8
G1 F1200 X38.125 Y33.599 E52.61121
M205 X10 Y10
G0 F6000 X38.69 Y33.599
M205 X8 Y8
G1 F1200 X41.415 Y36.324 E52.80347
M205 X10 Y10
G0 F6000 X41.981 Y36.324
M205 X8 Y8
G1 F1200 X39.256 Y33.599 E52.99574
M205 X10 Y10
G0 F6000 X39.822 Y33.599
M205 X8 Y8
G1 F1200 X42.547 Y36.324 E53.188
M205 X10 Y10
G0 F6000 X43.113 Y36.324
M205 X8 Y8
G1 F1200 X40.387 Y33.599 E53.3803
M205 X10 Y10
G0 F6000 X40.953 Y33.599
M205 X8 Y8
G1 F1200 X43.678 Y36.324 E53.57256
M205 X10 Y10
G0 F6000 X44.245 Y36.325
M205 X8 Y8
G1 F1200 X41.519 Y33.599 E53.7649
M205 X10 Y10
G0 F6000 X42.084 Y33.599
M205 X8 Y8
G1 F1200 X44.81 Y36.325 E53.95723
M205 X10 Y10
G0 F6000 X45.376 Y36.325
M205 X8 Y8
G1 F1200 X42.65 Y33.599 E54.14956
M205 X10 Y10
G0 F6000 X43.216 Y33.599
M205 X8 Y8
G1 F1200 X45.942 Y36.325 E54.3419
M205 X10 Y10
G0 F6000 X46.507 Y36.325
M205 X8 Y8
G1 F1200 X43.781 Y33.599 E54.53423
M205 X10 Y10
G0 F6000 X44.347 Y33.599
M205 X8 Y8
G1 F1200 X47.073 Y36.325 E54.72657
M205 X10 Y10
G0 F6000 X47.639 Y36.325
M205 X8 Y8
G1 F1200 X44.913 Y33.599 E54.9189
M205 X10 Y10
G0 F6000 X45.478 Y33.599
M205 X8 Y8
G1 F1200 X48.204 Y36.325 E55.11123
